!! George Gerswhin, "(I've Got) Beginner's Luck"
!! "Bumper Book of George Gerswhin,"
!! London: Chappell Music Ltd., 1987; pp.30-33
**kern
*M4/4
*MM[Moderato]
4f#
=1
4a
8a
[8a
8a]
8a
4a
=2
4a
2a
4ccn
=3
4a
8a
[8a
8a]
8a
4a
=4
4a
2a
4cc#
=5
4a
8a
[8a
8a]
8b
4g
=6
4f#
2f#
4cc#
=7
2.e
4b
=8
!! page 31
8d
[4.d
4d]
4f#
=9
4a
8a
[8a
8a]
8a
4a
=10
4a
2a
4b
=11
4cc#
8cc#
[8cc#
8cc#]
8cc#
4cc#
=12
4cc#
2.cc#
=13
4r
4b
4.b
8a
=14
4b
4b
2b
=15
4r
4b
4.b
8a
=16
4b
4b
4b
4cc#
=17
1a
=18
8g#
8b
4a
4gn
4e
=19
[1d
=20
2d]
4r
!! page 32
!! Refrain
4e
=21
2f#
4e
4d
=22
4dd
4dd
4.b
8g
=23
8a
4a
8g
4a
8g
[8a
=24
8a]
4a
8g
4a
4b
=25
1d
=26
4dd#
4ee
4b-
4bn
=27
2f#
4e
4d
=28
4dd
4dd
4.b
8g
=29
8a
4a
8g
4a
8g
[8a
=30
8a]
4a
8g
4a
4b
=31
1dd
=32
4b-
4bn
8ee
8ee
4ee
=33
4r
4dd
8b
4g
8e
=34
2.g
4g
=35
4dd
4bn
4g
4e
=36
!! page 33
4g
2g
4g
=37
4dd
4bn
4g
4e
=38
[2g
8g]
4a
8g
=39
4b
[4b
8b]
4a
8g
=40
2cc
2dd
=41
2f#
4e
4d
=42
4dd
4dd
2b
=43
4a
4g
4a
4b
=44
2.ee
8b
8b
=45
8d
4dd
8g
4a
8g
[8dd
=46
8dd]
4dd
8g
4a
4a
=47
!! First ending:
[1g
=48
4g]
4r
4r
!! page 32
!! Refrain
4e
=21
2f#
4e
4d
=22
4dd
4dd
4.b
8g
=23
8a
4a
8g
4a
8g
[8a
=24
8a]
4a
8g
4a
4b
=25
1d
=26
4dd#
4ee
4b-
4bn
=27
2f#
4e
4d
=28
4dd
4dd
4.b
8g
=29
8a
4a
8g
4a
8g
[8a
=30
8a]
4a
8g
4a
4b
=31
1dd
=32
4b-
4bn
8ee
8ee
4ee
=33
4r
4dd
8b
4g
8e
=34
2.g
4g
=35
4dd
4bn
4g
4e
=36
!! page 33
4g
2g
4g
=37
4dd
4bn
4g
4e
=38
[2g
8g]
4a
8g
=39
4b
[4b
8b]
4a
8g
=40
2cc
2dd
=41
2f#
4e
4d
=42
4dd
4dd
2b
=43
4a
4g
4a
4b
=44
2.ee
8b
8b
=45
8d
4dd
8g
4a
8g
[8dd
=46
8dd]
4dd
8g
4a
4a
!! Second ending:
=47
[1g
=47
2g]
2r
====
*-
